X:1
T: Prince Albert's Strathspey
C:
R:Strathspey
Q: 128
K:A
M:4/4
L:1/16
|:A3B|cE3 A3B c3B ce3|d3c df3 e4 c3B|A3c B3d c3e d3f|eE3 e3f ((3e2f2e2) ((3d2c2B2) |
AE3 A3B c3B ce3|d3c df3 e4 c3d|ea3 g3f efed cdcB|Ac3 B3G A4 e2fg|
a3A ce3 a3g fe3|((3d2b2d2) ((3c2a2c2) B3c df3|b3B ^df3 b3a g3f|ea3 g3f e3f gb3|
aA3 ce3 a3g f3e|((3d2b2d2) ((3c2a2c2) B3c d2f2|ea3 g3f efed cdcB|Ac3 B3G A4:|
